X:29
T: DA UNTEN IM GARTEN DA IST EIN SO SCHOEN PARADIES
N: E0009C
O: Europa, Mitteleuropa, Deutschland, Ober - Hessen
R: Sage, Maerchen -, Zauber - Lied
M: 6/8
L: 1/16
K: G
D2 | G3AB2G3AB2 | A6z4
B2 | c4e2e4dc | B6z4
G2 | G4e2e4d2 | c6z4
A2 | A4d2d4B2 | B6z4
D2 | E4F2G4e2 | e4d2c4d2 | B6z4

